X: 1080
T: Amazing Mushroom, The
R: reel
M: 4/4
K: Dmajor
|:fA A2 BcdB|AFDF E3F|D2 FD GB B2|Aceg fede|
fA A2 BcdB|AFDF E3F|DF F2 GB B2|Aceg fdde:|
|:f2af gfed|gB B2 BcdB|A2eA fAeA|Aceg fede|
f2af gfed|gB B2 BcdB|A2eA fAeA|Aceg fdde:|

